X:95
T:Da Slockit Light 2nd Part
C:Ellen Thomas
Z:Alf Warnock - alf0@rogers.com - http://members.rogers.com/alf0 from photocopy
M:4/4
L:1/8
K:D
FE|"D"A,3D F2A2|dcAG "Bm7"F2D2|"G"G2B2 "D"F2A2|"Em"GFED "A7"A,4|
"D"A,3D F2A2|dcAG F2D2|"Em"G,4 "A7"A,3C|"D"[A,6D6]:|
g|"D"d2A2 "A7"c3E|"Em"G4 "A7"FEDC|"D"D4 "E7"^G3E|"A7"C2A,2 B,2C2|
"D"D4 "A7"A4|"Em"G6GF|"G"G2B,2 "A7"A,B,A,C|"D"DA,B,G, A,4|
"D"D4 "A7"C4|"Em"B,6GF|"G"G2B2 "D"F2A2|"Em"GFED "A7"A,4|
"D"A,3D F2A2|"D"^A4 "Bm7"F2D2|"Em"G,4 "A7"A,3C|"D"[A,7D7]|
